X: 21791
T: King's Fancy, The
R: jig
M: 6/8
K: Cmajor
|:d|e2c cBc|Acf Gce|FAd EGc|BAG agf|
e2c cBc|Acf Gce|FAd EGc|BAB c2:|
|:f|ecA A^GA|ecA ABc|B^GE EGB|efe dcd|
ecA A^GA|ecA ABc|B^GE edB|cAA A2:|

